X: 15567
T: Glorious 45, The
R: reel
M: 4/4
K: Bminor
B2 fe fBBf|fefa f2 ed|fefa f-fed|eeef edBA|
B2 fe fBBf|fefa f2 ed|fefa f-fed|edBA Bddc|
B2 fe fBBf|fefa f2 ed|fefa f-fed|eeef gfed|
B2 fe fBBf|fefa f2 ed|fefa f-fed|edBA Bcde||
deBA Bdeg-|gf (efg) f2 ed|fefa f-fed|eeef edBA|
deBA Bdeg-|gf (efg) f2 ed|fefa f-fed|edBA Bcde|
deBA Bdeg-|gf (efg) f2 ed|fefa f-fed|eeef gfed|
deBA Bdeg-|gf (efg) f2 ed|fefa f-fed|edBA Bddc||

